symbols/web/view_in_ar/materialsymbolssharp/view_in_ar_wght200_20px.svg

<svg xmlns="http://www.w3.org/2000/svg" height="20" width="20"><path d="m10 16.333-5.417-3.145v-6.25L10 3.771l5.417 3.167v6.25ZM9.542 15v-4.688L5.5 8.021v4.625Zm.916 0 4.042-2.354V8.021l-4.042 2.291ZM1.667 5.104V1.667h3.437v.916H2.583v2.521Zm3.437 13.229H1.667v-3.458h.916v2.542h2.521Zm9.792-.166v-.917h2.521v-2.521h.916v3.438Zm2.521-13.063V2.583h-2.521v-.916h3.437v3.437ZM10 9.521l4.042-2.313L10 4.875 5.958 7.208Zm0 .791Zm0-.791Zm.458.791Zm-.916 0Z"/></svg>

<svg xmlns="http://www.w3.org/2000/svg" height="20" width="20"><path d="M10 16.333 4.583 13.188V6.938L10 3.771L15.417 6.938V13.188ZM9.542 15V10.312L5.5 8.021V12.646ZM10.458 15 14.5 12.646V8.021L10.458 10.312ZM1.667 5.104V1.667H5.104V2.583H2.583V5.104ZM5.104 18.333H1.667V14.875H2.583V17.417H5.104ZM14.896 18.167V17.25H17.417V14.729H18.333V18.167ZM17.417 5.104V2.583H14.896V1.667H18.333V5.104ZM10 9.521 14.042 7.208 10 4.875 5.958 7.208ZM10 10.312ZM10 9.521ZM10.458 10.312ZM9.542 10.312Z"/></svg>
